Lila_HD/actions/scalable/minuet-scales.svg

<?xml version="1.0" encoding="UTF-8" standalone="no"?>
<!-- Created with Inkscape (http://www.inkscape.org/) -->

<svg
   xmlns:dc="http://purl.org/dc/elements/1.1/"
   xmlns:cc="http://creativecommons.org/ns#"
   xmlns:rdf="http://www.w3.org/1999/02/22-rdf-syntax-ns#"
   xmlns:svg="http://www.w3.org/2000/svg"
   xmlns="http://www.w3.org/2000/svg"
   xmlns:xlink="http://www.w3.org/1999/xlink"
   xmlns:sodipodi="http://sodipodi.sourceforge.net/DTD/sodipodi-0.dtd"
   xmlns:inkscape="http://www.inkscape.org/namespaces/inkscape"
   id="svg3521"
   height="96"
   viewBox="0 0 418.90909 418.90909"
   width="96"
   version="1.1"
   sodipodi:docname="minuet-scales.svg"
   inkscape:version="0.92.2 5c3e80d, 2017-08-06">
  <sodipodi:namedview
     pagecolor="#ffffff"
     bordercolor="#666666"
     borderopacity="1"
     objecttolerance="10"
     gridtolerance="10"
     guidetolerance="10"
     inkscape:pageopacity="0"
     inkscape:pageshadow="2"
     inkscape:window-width="1280"
     inkscape:window-height="941"
     id="namedview168"
     showgrid="false"
     inkscape:zoom="2.1481099"
     inkscape:cx="-0.027404494"
     inkscape:cy="11"
     inkscape:window-x="0"
     inkscape:window-y="21"
     inkscape:window-maximized="1"
     inkscape:current-layer="svg3521">
    <inkscape:grid
       type="xygrid"
       id="grid232" />
  </sodipodi:namedview>
  <defs
     id="defs4339">
    <style
       id="current-color-scheme"
       type="text/css">.ColorScheme-Text {
        color:#4d4d4d;
      }</style>
    <linearGradient
       inkscape:collect="always"
       xlink:href="#linearGradient6139-0"
       id="linearGradient4071"
       gradientUnits="userSpaceOnUse"
       gradientTransform="matrix(4.8311686,0,0,4.8311677,-183.89612,143.84415)"
       x1="6"
       y1="47.000011"
       x2="90"
       y2="47.000011" />
    <linearGradient
       id="linearGradient6139-0">
      <stop
         id="stop6141-2"
         offset="0"
         style="stop-color:#b2babc;stop-opacity:1" />
      <stop
         style="stop-color:#ffffff;stop-opacity:1;"
         offset="0.25"
         id="stop6151-0" />
      <stop
         style="stop-color:#96a1a4;stop-opacity:1"
         offset="0.5"
         id="stop6147-1" />
      <stop
         id="stop6149-4"
         offset="0.75"
         style="stop-color:#fbf9f9;stop-opacity:1;" />
      <stop
         id="stop6143-4"
         offset="1"
         style="stop-color:#b2b9bc;stop-opacity:1" />
    </linearGradient>
    <linearGradient
       gradientTransform="matrix(4.3636364,0,0,4.3636364,-161.45456,161.45453)"
       inkscape:collect="always"
       xlink:href="#linearGradient3832-0-6-1-1"
       id="linearGradient4129"
       x1="1.5"
       y1="88.171875"
       x2="94.5"
       y2="88.171875"
       gradientUnits="userSpaceOnUse" />
    <linearGradient
       id="linearGradient3832-0-6-1-1">
      <stop
         style="stop-color:#000000;stop-opacity:1;"
         offset="0"
         id="stop3834-6-3-7-1" />
      <stop
         id="stop3872-2-4"
         offset="0.1"
         style="stop-color:#000000;stop-opacity:0.58823532;" />
      <stop
         style="stop-color:#000000;stop-opacity:0.58823532;"
         offset="0.89999998"
         id="stop3844-6-2-7-6" />
      <stop
         style="stop-color:#000000;stop-opacity:1;"
         offset="1"
         id="stop3836-5-0-2-9" />
    </linearGradient>
    <radialGradient
       inkscape:collect="always"
       xlink:href="#linearGradient3737"
       id="radialGradient7462"
       gradientUnits="userSpaceOnUse"
       gradientTransform="matrix(4.2551293,0,0,0.21465042,-13.532979,511.27285)"
       cx="13.948145"
       cy="44.892841"
       fx="13.948145"
       fy="44.892841"
       r="43.199203" />
    <linearGradient
       id="linearGradient3737">
      <stop
         offset="0"
         style="stop-color:#ffffff;stop-opacity:1"
         id="stop3739" />
      <stop
         offset="1"
         style="stop-color:#ffffff;stop-opacity:0"
         id="stop3741" />
    </linearGradient>
    <radialGradient
       inkscape:collect="always"
       xlink:href="#linearGradient3737"
       id="radialGradient7464"
       gradientUnits="userSpaceOnUse"
       gradientTransform="matrix(3.8763344,0,0,0.21465042,299.10323,-232.00714)"
       cx="13.948145"
       cy="44.892841"
       fx="13.948145"
       fy="44.892841"
       r="43.199203" />
    <linearGradient
       inkscape:collect="always"
       xlink:href="#linearGradient3737"
       id="linearGradient4767"
       gradientUnits="userSpaceOnUse"
       x1="2.7713892"
       y1="-28.64156"
       x2="50.527882"
       y2="14.514202" />
    <clipPath
       id="clipPath4156-4-1"
       clipPathUnits="userSpaceOnUse">
      <path
         inkscape:connector-curvature="0"
         id="path4158-0-8"
         d="m 27.046336,-55.695463 -14.21366,13.321486 h 0.06127 l 15.653407,21.770763 10.231384,-10.546177 C 38.561832,-32.30156 27.468089,-54.819245 27.046336,-55.695463 Z M 9.6468554,-39.382809 -5.2407289,-25.32124 15.987863,-7.8059573 26.372412,-18.382966 Z m 31.4906096,12.951445 -9.741259,9.713584 8.944804,12.4580526 7.780753,-7.5550056 z m -49.8397109,4.378822 -13.7541661,12.9822847 26.2830181,13.84571 0.06127,-0.0617 -0.122531,-0.0617 L 13.598503,-5.4007374 -8.7022409,-22.052595 Z m 38.0154159,7.400825 -9.802525,9.7752596 11.579232,9.5594001 7.62759,-7.40083 -8.669108,-11.0087257 z m 20.187073,5.6739697 -7.382526,7.2158 6.187844,8.54179 5.820249,-6.13651996 z m -32.195166,6.32154 -9.5574606,9.49772 13.6622686,7.1849703 7.933918,-7.6783603 z m 23.311629,2.37443004 -7.10683,6.93826996 8.362778,6.9074403 5.360756,-5.6739699 -0.06127,-0.0925 -0.0919,0.12335 -6.463539,-8.20258036 z m -8.730374,8.54178036 -7.505057,7.3391599 10.353916,5.45811 c 1.397496,-1.32103 5.67514,-6.12292 5.850882,-6.32154 z"
         style="opacity:0.6;fill:#ffffff;fill-opacity:1;stroke:none" />
    </clipPath>
    <linearGradient
       id="ButtonShadow-16"
       gradientTransform="scale(1.0058652,0.994169)"
       x1="45.447727"
       y1="92.539597"
       x2="45.447727"
       y2="7.0165396"
       gradientUnits="userSpaceOnUse">
      <stop
         style="stop-color:#000000;stop-opacity:1;"
         offset="0"
         id="stop3750-6" />
      <stop
         style="stop-color:#000000;stop-opacity:0.58823532;"
         offset="1"
         id="stop3752-4" />
    </linearGradient>
    <clipPath
       clipPathUnits="userSpaceOnUse"
       id="clipPath4355-7">
      <rect
         style="fill:#ffffff;fill-opacity:1;fill-rule:nonzero;stroke:none"
         id="rect4357-5"
         width="84"
         height="80"
         x="6"
         y="6"
         rx="6"
         ry="6" />
    </clipPath>
    <clipPath
       clipPathUnits="userSpaceOnUse"
       id="clipPath4355-9">
      <rect
         style="fill:#ffffff;fill-opacity:1;fill-rule:nonzero;stroke:none"
         id="rect4357-1"
         width="84"
         height="80"
         x="6"
         y="6"
         rx="6"
         ry="6" />
    </clipPath>
    <clipPath
       clipPathUnits="userSpaceOnUse"
       id="clipPath4355-1">
      <rect
         style="fill:#ffffff;fill-opacity:1;fill-rule:nonzero;stroke:none"
         id="rect4357-9"
         width="84"
         height="80"
         x="6"
         y="6"
         rx="6"
         ry="6" />
    </clipPath>
    <clipPath
       clipPathUnits="userSpaceOnUse"
       id="clipPath3943-52-0">
      <path
         id="path3945-4-1"
         d="m 69.78125,20.84375 -5,3.4375 c 5.586891,5.537137 9,13.327613 9,21.8125 0,8.434478 -3.37723,16.095981 -8.90625,21.625 l 5,3.4375 C 76.078226,64.5762 80,55.843726 80,46.09375 c 2e-6,-9.796556 -3.962955,-18.660417 -10.21875,-25.25 z M 40,24.0625 28.90625,36.21875 H 21.5 c -0.823281,0 -1.5,0.676717 -1.5,1.5 v 1 14.84375 1 c 0,0.823281 0.684121,1.610161 1.5,1.5 h 7.40625 L 40,68 V 66 26.0625 Z m 20.59375,3.28125 -5,3.4375 L 55.5,30.875 c 3.93815,3.890071 6.40625,9.25018 6.40625,15.21875 0,5.920869 -2.42961,11.148358 -6.3125,15.03125 l 0.09375,0.09375 5.09375,3.4375 c 4.475428,-4.908367 7.25,-11.402005 7.25,-18.5625 0,-7.230696 -2.87904,-13.83107 -7.4375,-18.75 z m -9.25,6.5 -5.21875,3.625 c 2.222384,2.217802 3.71875,5.239596 3.71875,8.625 0,3.336509 -1.458847,6.227712 -3.625,8.4375 l 5.21875,3.625 c 2.822412,-3.236947 4.53125,-7.43414 4.53125,-12.0625 0,-4.672601 -1.754155,-9.001351 -4.625,-12.25 z"
         style="color:#000000;display:inline;overflow:visible;visibility:visible;opacity:0.8;fill:#ff00ff;fill-opacity:1;fill-rule:nonzero;stroke:none;stroke-width:1;marker:none;enable-background:accumulate"
         inkscape:connector-curvature="0" />
    </clipPath>
  </defs>
  <metadata
     id="metadata3526">
    <rdf:RDF>
      <cc:Work
         rdf:about="">
        <dc:format>image/svg+xml</dc:format>
        <dc:type
           rdf:resource="http://purl.org/dc/dcmitype/StillImage" />
        <dc:title></dc:title>
      </cc:Work>
    </rdf:RDF>
  </metadata>
  <g
     id="g62"
     transform="translate(161.45454,-161.45454)">
    <path
       inkscape:connector-curvature="0"
       id="path3288"
       d="m 227.53245,161.45453 h -359.06496 c -16.57679,0 -29.92204,13.34525 -29.92204,29.92207 v 359.06495 c 0,16.57683 13.34525,29.92208 29.92204,29.92208 h 359.06496 c 16.57683,0 29.9221,-13.34525 29.9221,-29.92208 V 191.3766 c 0,-16.57682 -13.34527,-29.92207 -29.9221,-29.92207 z"
       style="display:inline;opacity:0.15;fill:#000000;fill-opacity:1;fill-rule:nonzero;stroke:none;stroke-width:4.36363649" />
    <path
       style="display:inline;opacity:0.15;fill:#000000;fill-opacity:1;fill-rule:nonzero;stroke:none;stroke-width:4.36363649"
       d="m 224.72726,164.72726 h -353.45458 c -16.31778,0 -29.45451,13.13672 -29.45451,29.45453 v 353.45456 c 0,16.31783 13.13673,29.45455 29.45451,29.45455 h 353.45458 c 16.31783,0 29.45456,-13.13672 29.45456,-29.45455 V 194.18179 c 0,-16.31781 -13.13673,-29.45453 -29.45456,-29.45453 z"
       id="path4085"
       inkscape:connector-curvature="0" />
    <path
       inkscape:connector-curvature="0"
       id="rect4251-1"
       d="m 221.92205,167.99999 h -347.84414 c -16.05881,0 -28.98701,12.9282 -28.98701,28.987 v 347.84418 c 0,16.0588 12.9282,28.98701 28.98701,28.98701 h 347.84414 c 16.05881,0 28.987,-12.92821 28.987,-28.98701 V 196.98699 c 0,-16.0588 -12.92819,-28.987 -28.987,-28.987 z"
       style="display:inline;fill:url(#linearGradient4071);fill-opacity:1;fill-rule:nonzero;stroke:none;stroke-width:4.36363649" />
    <path
       sodipodi:nodetypes="sscccsccscccsss"
       inkscape:connector-curvature="0"
       id="path3400-6"
       d="m -112.40164,189.3257 c -12.46472,0 -22.35984,9.98565 -22.35984,22.56437 v 93.50113 31.59012 174.16876 c 4.78796,7.35047 12.95498,12.26937 22.35984,12.26937 h 17.887864 286.205886 17.88787 c 9.40486,0 17.57188,-4.9189 22.35983,-12.26937 V 336.98132 305.3912 211.89007 c 0,-12.57872 -9.89512,-22.56437 -22.35983,-22.56437 z"
       style="display:inline;opacity:0.9;fill:#e8e8e8;fill-opacity:1;fill-rule:nonzero;stroke:none;stroke-width:4.49237442" />
    <path
       style="color:#000000;font-style:normal;font-variant:normal;font-weight:normal;font-stretch:normal;font-size:medium;line-height:normal;font-family:Sans;-inkscape-font-specification:Sans;text-indent:0;text-align:start;text-decoration:none;text-decoration-line:none;letter-spacing:normal;word-spacing:normal;text-transform:none;writing-mode:lr-tb;direction:ltr;baseline-shift:baseline;text-anchor:start;display:inline;overflow:visible;visibility:visible;fill:#1f2224;fill-opacity:0.63265303;stroke:none;stroke-width:10.36581898;marker:none;enable-background:accumulate"
       d="m -118.58148,182.09218 c -13.5998,0 -24.73294,11.0815 -24.73294,24.63711 v 302.30398 c 0,13.55562 11.13314,24.63711 24.73294,24.63711 h 335.09143 c 13.5998,0 24.73295,-11.08149 24.73295,-24.63711 V 206.72929 c 0,-13.55561 -11.13315,-24.63711 -24.73295,-24.63711 z m 0,10.12119 h 335.09143 c 8.23897,0 14.627,6.4586 14.627,14.51592 v 302.30398 c 0,8.05735 -6.38803,14.51592 -14.627,14.51592 h -335.09143 c -8.23898,0 -14.62701,-6.45857 -14.62701,-14.51592 V 206.72929 c 0,-8.05732 6.38803,-14.51592 14.62701,-14.51592 z"
       id="path4989"
       inkscape:connector-curvature="0" />
    <path
       id="path4118"
       d="m -154.90911,518.5909 v 26.18182 c 0,16.0588 12.98665,29.04545 29.04546,29.04545 h 347.72727 c 16.05881,0 29.04547,-12.98665 29.04547,-29.04545 V 518.5909 c 0,16.0588 -12.98666,29.04545 -29.04547,29.04545 h -347.72727 c -16.05881,0 -29.04546,-12.98665 -29.04546,-29.04545 z"
       style="display:inline;opacity:0.65818182;fill:url(#linearGradient4129);fill-opacity:1;fill-rule:nonzero;stroke:none;stroke-width:4.36363649"
       inkscape:connector-curvature="0" />
    <rect
       ry="18.545454"
       rx="18.545454"
       y="511.63638"
       x="-138.00002"
       height="18.545454"
       width="367.63641"
       id="rect4131"
       style="opacity:0.55;fill:url(#radialGradient7462);fill-opacity:1;stroke:none;stroke-width:4.36363649" />
    <rect
       transform="rotate(90)"
       style="opacity:0.669;fill:url(#radialGradient7464);fill-opacity:1;stroke:none;stroke-width:4.36363649"
       id="rect4141"
       width="334.90909"
       height="18.545454"
       x="185.71634"
       y="-231.64366"
       rx="18.545454"
       ry="18.545454" />
    <g
       style="stroke-width:0.06155838"
       transform="matrix(16.244743,0,0,16.244743,-130.69217,-16549.684)"
       id="layer1">
      <path
         inkscape:connector-curvature="0"
         transform="translate(0,1030.4)"
         d="M 16,3 V 5 H 3 V 6 H 16 V 7.6523 A 1.9977,1.9977 0 0 0 15.635,7.5 L 15.627,7.498 A 1.9977,1.9977 0 0 0 13.139,8.832 1.9977,1.9977 0 0 0 13.098,9 H 13 V 7 H 12 V 9 H 3 v 1 h 9 v 1.652 A 1.9977,1.9977 0 0 0 11.635,11.5 L 11.627,11.498 A 1.9977,1.9977 0 0 0 9.1387,12.832 1.9977,1.9977 0 0 0 9.0977,13 H 9 V 11 H 8 v 2 H 3 v 1 h 5 v 1.654 A 1.9977,1.9977 0 0 0 7.6348,15.5 L 7.627,15.498 A 1.9977,1.9977 0 0 0 5.1387,16.832 1.9977,1.9977 0 0 0 5.0977,17 H 3 v 1 H 5.1445 A 1.9977,1.9977 0 0 0 6.4707,19.322 1.9977,1.9977 0 0 0 8.9609,18 H 9 19 V 17 H 9.0039 A 1.9977,1.9977 0 0 0 9,16.982 V 14 H 9.1445 A 1.9977,1.9977 0 0 0 10.473,15.322 1.9977,1.9977 0 0 0 12.961,14 H 13 19 V 13 H 13.004 A 1.9977,1.9977 0 0 0 13,12.982 V 10 h 0.145 A 1.9977,1.9977 0 0 0 14.473,11.322 1.9977,1.9977 0 0 0 16.961,10 H 17 19 V 9 H 17.004 A 1.9977,1.9977 0 0 0 17,8.9824 V 6 h 2 V 5 H 17 V 3 Z m -0.943,5.457 a 0.97972,0.97972 0 0 1 0.255,0.0352 L 15.338,8.5 A 0.97972,0.97972 0 0 1 15.99,9.7168 0.97972,0.97972 0 0 1 14.777,10.377 0.97972,0.97972 0 0 1 14.109,9.168 0.97972,0.97972 0 0 1 15.057,8.457 Z m -4,4 a 0.97972,0.97972 0 0 1 0.255,0.035 l 0.026,0.008 a 0.97972,0.97972 0 0 1 0.652,1.217 0.97972,0.97972 0 0 1 -1.213,0.66 0.97972,0.97972 0 0 1 -0.668,-1.209 0.97972,0.97972 0 0 1 0.948,-0.711 z m -4.0004,4 a 0.97972,0.97972 0 0 1 0.2559,0.035 L 7.3379,16.5 a 0.97972,0.97972 0 0 1 0.6523,1.217 0.97972,0.97972 0 0 1 -1.2129,0.66 0.97972,0.97972 0 0 1 -0.6679,-1.209 0.97972,0.97972 0 0 1 0.9472,-0.711 z"
         style="color:#4d4d4d;fill:currentColor;stroke-width:0.00378943"
         class="ColorScheme-Text"
         id="rect4315" />
    </g>
    <rect
       clip-path="url(#clipPath4156-4-1)"
       ry="3.9569881"
       rx="3.9569874"
       y="-30"
       x="2"
       height="69.024437"
       width="75.965775"
       id="rect4146"
       style="opacity:0.65;fill:url(#linearGradient4767);fill-opacity:1;stroke:none"
       transform="matrix(4.6657968,0,0,4.5717072,-142.71175,329.36284)" />
  </g>
</svg>

<?xml version="1.0" encoding="UTF-8"?>
<!-- Created with Inkscape (http://www.inkscape.org/) -->
<svg width="96" height="96" version="1.1" viewBox="0 0 418.91 418.91" xmlns="http://www.w3.org/2000/svg" xmlns:cc="http://creativecommons.org/ns#" xmlns:dc="http://purl.org/dc/elements/1.1/" xmlns:rdf="http://www.w3.org/1999/02/22-rdf-syntax-ns#" xmlns:xlink="http://www.w3.org/1999/xlink">
<defs>
<style type="text/css">.ColorScheme-Text {
        color:#4d4d4d;
      }</style>
<linearGradient id="linearGradient4071" x1="6" x2="90" y1="47" y2="47" gradientTransform="matrix(4.8312 0 0 4.8312 -183.9 143.84)" gradientUnits="userSpaceOnUse">
<stop stop-color="#b2babc" offset="0"/>
<stop stop-color="#fff" offset=".25"/>
<stop stop-color="#96a1a4" offset=".5"/>
<stop stop-color="#fbf9f9" offset=".75"/>
<stop stop-color="#b2b9bc" offset="1"/>
</linearGradient>
<linearGradient id="linearGradient4129" x1="1.5" x2="94.5" y1="88.172" y2="88.172" gradientTransform="matrix(4.3636 0 0 4.3636 -161.45 161.45)" gradientUnits="userSpaceOnUse">
<stop offset="0"/>
<stop stop-opacity=".58824" offset=".1"/>
<stop stop-opacity=".58824" offset=".9"/>
<stop offset="1"/>
</linearGradient>
<radialGradient id="radialGradient7462" cx="13.948" cy="44.893" r="43.199" gradientTransform="matrix(4.2551 0 0 .21465 -13.533 511.27)" gradientUnits="userSpaceOnUse" xlink:href="#linearGradient3737"/>
<linearGradient id="linearGradient3737">
<stop stop-color="#fff" offset="0"/>
<stop stop-color="#fff" stop-opacity="0" offset="1"/>
</linearGradient>
<radialGradient id="radialGradient7464" cx="13.948" cy="44.893" r="43.199" gradientTransform="matrix(3.8763 0 0 .21465 299.1 -232.01)" gradientUnits="userSpaceOnUse" xlink:href="#linearGradient3737"/>
<linearGradient id="linearGradient4767" x1="2.7714" x2="50.528" y1="-28.642" y2="14.514" gradientUnits="userSpaceOnUse" xlink:href="#linearGradient3737"/>
<clipPath id="clipPath4156-4-1">
<path d="m27.046-55.695-14.214 13.321h0.06127l15.653 21.771 10.231-10.546c-0.2169-1.1522-11.311-23.67-11.732-24.546zm-17.399 16.313-14.888 14.062 21.229 17.515 10.385-10.577zm31.491 12.951-9.7413 9.7136 8.9448 12.458 7.7808-7.555zm-49.84 4.3788-13.754 12.982 26.283 13.846 0.06127-0.0617-0.12253-0.0617 9.8332-10.053-22.301-16.652zm38.015 7.4008-9.8025 9.7753 11.579 9.5594 7.6276-7.4008-8.6691-11.009zm20.187 5.674-7.3825 7.2158 6.1878 8.5418 5.8202-6.1365zm-32.195 6.3215-9.5575 9.4977 13.662 7.185 7.9339-7.6784zm23.312 2.3744-7.1068 6.9383 8.3628 6.9074 5.3608-5.674-0.06127-0.0925-0.0919 0.12335-6.4635-8.2026zm-8.7304 8.5418-7.5051 7.3392 10.354 5.4581c1.3975-1.321 5.6751-6.1229 5.8509-6.3215z" fill="#fff" opacity=".6"/>
</clipPath>
</defs>
<metadata>
<rdf:RDF>
<cc:Work rdf:about="">
<dc:format>image/svg+xml</dc:format>
<dc:type rdf:resource="http://purl.org/dc/dcmitype/StillImage"/>
<dc:title/>
</cc:Work>
</rdf:RDF>
</metadata>
<g transform="translate(161.45 -161.45)">
<path d="m227.53 161.45h-359.06c-16.577 0-29.922 13.345-29.922 29.922v359.06c0 16.577 13.345 29.922 29.922 29.922h359.06c16.577 0 29.922-13.345 29.922-29.922v-359.06c0-16.577-13.345-29.922-29.922-29.922z" opacity=".15"/>
<path d="m224.73 164.73h-353.45c-16.318 0-29.455 13.137-29.455 29.455v353.45c0 16.318 13.137 29.455 29.455 29.455h353.45c16.318 0 29.455-13.137 29.455-29.455v-353.45c0-16.318-13.137-29.455-29.455-29.455z" opacity=".15"/>
<path d="m221.92 168h-347.84c-16.059 0-28.987 12.928-28.987 28.987v347.84c0 16.059 12.928 28.987 28.987 28.987h347.84c16.059 0 28.987-12.928 28.987-28.987v-347.84c0-16.059-12.928-28.987-28.987-28.987z" fill="url(#linearGradient4071)"/>
<path d="m-112.4 189.33c-12.465 0-22.36 9.9856-22.36 22.564v299.26c4.788 7.3505 12.955 12.269 22.36 12.269h321.98c9.4049 0 17.572-4.9189 22.36-12.269v-299.26c0-12.579-9.8951-22.564-22.36-22.564z" fill="#e8e8e8" opacity=".9"/>
<path d="m-118.58 182.09c-13.6 0-24.733 11.082-24.733 24.637v302.3c0 13.556 11.133 24.637 24.733 24.637h335.09c13.6 0 24.733-11.081 24.733-24.637v-302.3c0-13.556-11.133-24.637-24.733-24.637zm0 10.121h335.09c8.239 0 14.627 6.4586 14.627 14.516v302.3c0 8.0574-6.388 14.516-14.627 14.516h-335.09c-8.239 0-14.627-6.4586-14.627-14.516v-302.3c0-8.0573 6.388-14.516 14.627-14.516z" color="#000000" fill="#1f2224" fill-opacity=".63265" style="text-decoration-line:none;text-indent:0;text-transform:none"/>
<path d="m-154.91 518.59v26.182c0 16.059 12.987 29.045 29.045 29.045h347.73c16.059 0 29.045-12.987 29.045-29.045v-26.182c0 16.059-12.987 29.045-29.045 29.045h-347.73c-16.059 0-29.045-12.987-29.045-29.045z" fill="url(#linearGradient4129)" opacity=".65818"/>
<rect x="-138" y="511.64" width="367.64" height="18.545" rx="18.545" ry="18.545" fill="url(#radialGradient7462)" opacity=".55"/>
<rect transform="rotate(90)" x="185.72" y="-231.64" width="334.91" height="18.545" rx="18.545" ry="18.545" fill="url(#radialGradient7464)" opacity=".669"/>
<g transform="matrix(16.245 0 0 16.245 -130.69 -16550)" stroke-width=".061558">
<path class="ColorScheme-Text" transform="translate(0,1030.4)" d="m16 3v2h-13v1h13v1.6523a1.9977 1.9977 0 0 0-0.365-0.1523l-8e-3 -2e-3a1.9977 1.9977 0 0 0-2.488 1.334 1.9977 1.9977 0 0 0-0.041 0.168h-0.098v-2h-1v2h-9v1h9v1.652a1.9977 1.9977 0 0 0-0.365-0.152l-8e-3 -2e-3a1.9977 1.9977 0 0 0-2.4883 1.334 1.9977 1.9977 0 0 0-0.041 0.168h-0.0977v-2h-1v2h-5v1h5v1.654a1.9977 1.9977 0 0 0-0.3652-0.154l-0.0078-2e-3a1.9977 1.9977 0 0 0-2.4883 1.334 1.9977 1.9977 0 0 0-0.041 0.168h-2.0977v1h2.1445a1.9977 1.9977 0 0 0 1.3262 1.322 1.9977 1.9977 0 0 0 2.4902-1.322h10.039v-1h-9.9961a1.9977 1.9977 0 0 0-0.0039-0.018v-2.982h0.1445a1.9977 1.9977 0 0 0 1.3285 1.322 1.9977 1.9977 0 0 0 2.488-1.322h6.039v-1h-5.996a1.9977 1.9977 0 0 0-4e-3 -0.018v-2.982h0.145a1.9977 1.9977 0 0 0 1.328 1.322 1.9977 1.9977 0 0 0 2.488-1.322h2.039v-1h-1.996a1.9977 1.9977 0 0 0-4e-3 -0.0176v-2.9824h2v-1h-2v-2zm-0.943 5.457a0.97972 0.97972 0 0 1 0.255 0.0352l0.026 0.0078a0.97972 0.97972 0 0 1 0.652 1.2168 0.97972 0.97972 0 0 1-1.213 0.6602 0.97972 0.97972 0 0 1-0.668-1.209 0.97972 0.97972 0 0 1 0.948-0.711zm-4 4a0.97972 0.97972 0 0 1 0.255 0.035l0.026 8e-3a0.97972 0.97972 0 0 1 0.652 1.217 0.97972 0.97972 0 0 1-1.213 0.66 0.97972 0.97972 0 0 1-0.668-1.209 0.97972 0.97972 0 0 1 0.948-0.711zm-4.0004 4a0.97972 0.97972 0 0 1 0.2559 0.035l0.0254 8e-3a0.97972 0.97972 0 0 1 0.6523 1.217 0.97972 0.97972 0 0 1-1.2129 0.66 0.97972 0.97972 0 0 1-0.6679-1.209 0.97972 0.97972 0 0 1 0.9472-0.711z" color="#4d4d4d" fill="currentColor" stroke-width=".0037894"/>
</g>
<rect transform="matrix(4.6658 0 0 4.5717 -142.71 329.36)" x="2" y="-30" width="75.966" height="69.024" rx="3.957" ry="3.957" clip-path="url(#clipPath4156-4-1)" fill="url(#linearGradient4767)" opacity=".65"/>
</g>
</svg>
